asset_auto_exported/icn_tv_motor.svg

<?xml version="1.0" encoding="UTF-8"?>
<svg width="24px" height="24px" viewBox="0 0 24 24" version="1.1" xmlns="http://www.w3.org/2000/svg" xmlns:xlink="http://www.w3.org/1999/xlink">
    <title>icn_tv_motor</title>
    <g id="Quique" stroke="none" stroke-width="1" fill="none" fill-rule="evenodd">
        <g id="Assets/Global/24/TvMotor" fill="#000000" fill-rule="nonzero">
            <g id="-----ICON-LAYERS-----">
                <path d="M12,-0.0003 C18.627,-0.0003 24,5.3727 24,11.9997 C24,18.6277 18.627,23.9997 12,23.9997 C5.373,23.9997 0,18.6277 0,11.9997 C0,5.3727 5.373,-0.0003 12,-0.0003 Z M13.7238907,3.77877206 L13.4165274,3.78125709 C10.8725745,3.83328256 8.76736872,4.67115908 7.36798606,6.51460282 C4.63864259,10.109106 4.27751884,14.8614201 5.21247996,17.3939574 C5.61781819,18.4952792 7.05522958,19.4077003 8.08001391,19.1841382 C14.0066093,17.8966647 17.0104603,16.5852692 18.4765877,15.2732392 C18.8141615,14.9709165 19.0817554,14.6137493 19.2862234,14.2152922 C19.6170371,13.5706191 19.7475812,12.9274993 19.7667282,12.4069431 L19.7667282,12.4069431 L19.7685336,12.2022538 L19.7707996,10.3841805 L19.7655012,10.0083664 C19.7315816,9.02180892 19.5412561,8.16031489 19.2405741,7.42767087 C19.0340579,6.92447192 18.8194543,6.57778739 18.6597378,6.38534607 C18.4932259,6.10471288 18.0871422,5.60764885 17.4868743,5.11312689 C16.5203773,4.31689247 15.3667042,3.82117408 14.0353633,3.78374683 L14.0353633,3.78374683 L13.7238907,3.77877206 Z M13.6962246,5.02864323 L14.0002367,5.03325317 L14.254996,5.04784863 C15.1788903,5.12809935 15.9904054,5.49984335 16.6920643,6.07789479 C16.9743101,6.3104189 17.2178134,6.5599834 17.4207295,6.80836154 L17.4207295,6.80836154 L17.5423405,6.96329946 L17.5877043,7.02518244 C17.6144963,7.06267395 17.6343741,7.09243768 17.6472611,7.11327262 C17.7799328,7.28254019 17.9280099,7.52175342 18.0841743,7.90226501 C18.3607513,8.5761745 18.5264857,9.40010109 18.5208105,10.3798799 L18.5208105,10.3798799 L18.5190005,12.2364466 L18.5165171,12.380016 C18.4998002,12.7319801 18.4040083,13.1965733 18.1741002,13.6446067 C18.0369811,13.9118175 17.8613861,14.1461906 17.6428365,14.3419182 C16.361007,15.4890208 13.5478299,16.7171735 7.81412166,17.9627452 C7.43424162,18.0456177 6.58616384,17.5072861 6.38533552,16.9616272 C6.25271066,16.6023845 6.13835171,15.9666476 6.08638709,15.2078276 L6.08638709,15.2078276 L6.17415336,15.2003651 C7.34116685,15.0727681 8.44275693,14.6248017 9.40064873,14.0134413 C10.6181317,13.2369786 12.0942069,11.5354065 12.3604407,10.3405242 C12.6682206,8.9549022 11.9512884,7.84992301 10.8083184,7.82080275 C10.5606612,7.81488658 10.329622,7.87937678 10.1019919,7.99980927 C9.95959007,8.07514992 9.82533005,8.16750198 9.66126129,8.29581672 L9.66126129,8.29581672 L9.28564204,8.5971314 C8.9877157,8.83068807 8.76058529,8.96479251 8.50708605,9.0411755 C8.34526704,9.09009725 8.15434284,9.12339961 7.94031516,9.14114234 C7.70890066,9.16032643 7.46288743,9.16083172 7.21166419,9.14470714 C7.52627749,8.49622085 7.90874809,7.8694485 8.3635667,7.27045941 C9.54336347,5.71628197 11.3837848,5.02388139 13.6962246,5.02864323 L13.6962246,5.02864323 Z M10.7774759,9.07042179 C11.0758657,9.07802487 11.2878377,9.40472892 11.1402704,10.0690756 C10.9582594,10.8859577 9.69317872,12.344302 8.72832899,12.9596453 C7.84838797,13.5212547 6.82478135,13.9189897 5.79331462,13.9786426 L5.84,13.9737 L6.06187818,13.9548552 C6.06462589,13.8591007 6.06846736,13.7627832 6.07346681,13.6661257 L6.0920033,13.3753566 C6.17038695,12.3438439 6.37171544,11.3316562 6.7091089,10.3585535 C7.15349487,10.4074545 7.60800948,10.4229781 8.04358498,10.3868692 C8.33990827,10.3623042 8.61582827,10.3141763 8.86826844,10.2378571 C9.29729685,10.108585 9.64729215,9.90193747 10.0568399,9.58087621 C10.1302026,9.52336417 10.3790238,9.32135329 10.4313232,9.28045103 L10.4313232,9.28045103 L10.5762917,9.17287238 L10.6865573,9.10469985 C10.7377946,9.0775917 10.7645843,9.07011387 10.7774759,9.07042179 Z M15.5146,10.2028 C14.5464024,10.2028 13.7606,10.9876412 13.7606,11.9558 C13.7606,12.9239588 14.5464024,13.7088 15.5146,13.7088 C16.482778,13.7088 17.2676,12.923978 17.2676,11.9558 C17.2676,10.987622 16.482778,10.2028 15.5146,10.2028 Z M15.5146,11.4528 C15.792422,11.4528 16.0176,11.677978 16.0176,11.9558 C16.0176,12.233622 15.792422,12.4588 15.5146,12.4588 C15.2364161,12.4588 15.0106,12.2332601 15.0106,11.9558 C15.0106,11.6783399 15.2364161,11.4528 15.5146,11.4528 Z" id="Combined-Shape"></path>
            </g>
        </g>
    </g>
</svg>

<svg width="24" height="24" viewBox="0 0 24 24" xmlns="http://www.w3.org/2000/svg"><path d="M12 0c6.627 0 12 5.373 12 12 0 6.628-5.373 12-12 12S0 18.628 0 12C0 5.373 5.373 0 12 0zm1.724 3.779l-.307.002c-2.544.052-4.65.89-6.049 2.734-2.73 3.594-3.09 8.346-2.156 10.879.406 1.101 1.843 2.014 2.868 1.79 5.927-1.287 8.93-2.599 10.397-3.91.337-.303.605-.66.81-1.059.33-.644.46-1.288.48-1.808l.002-.205.002-1.818-.005-.376c-.034-.986-.225-1.848-.525-2.58-.207-.504-.422-.85-.581-1.043-.167-.28-.573-.777-1.173-1.272-.967-.796-2.12-1.292-3.452-1.33l-.311-.004zm-.028 1.25l.304.004.255.015c.924.08 1.735.452 2.437 1.03.282.232.526.482.729.73l.121.155.046.062.06.088c.132.17.28.409.436.79.277.673.442 1.497.437 2.477l-.002 1.856-.002.144a3.178 3.178 0 01-.343 1.265 2.39 2.39 0 01-.531.697c-1.282 1.147-4.095 2.375-9.829 3.62-.38.084-1.228-.455-1.429-1-.132-.36-.247-.995-.299-1.754l.088-.008c1.167-.127 2.269-.575 3.227-1.187 1.217-.776 2.693-2.478 2.96-3.672.307-1.386-.41-2.491-1.553-2.52a1.413 1.413 0 00-.706.179 2.938 2.938 0 00-.44.296l-.376.301c-.298.234-.525.368-.779.444a2.773 2.773 0 01-.567.1c-.231.02-.477.02-.728.004.314-.649.697-1.276 1.152-1.875 1.18-1.554 3.02-2.246 5.332-2.241zM10.777 9.07c.299.008.51.335.363 1-.182.816-1.447 2.274-2.412 2.89-.88.561-1.903.959-2.935 1.019l.047-.005.222-.02c.003-.095.006-.191.011-.288l.019-.29c.078-1.032.28-2.044.617-3.017.444.048.899.064 1.335.028.296-.025.572-.073.824-.15.43-.128.78-.335 1.189-.656.073-.058.322-.26.374-.3l.145-.108.11-.068c.052-.027.079-.035.091-.035zm4.738 1.133a1.754 1.754 0 100 3.507 1.754 1.754 0 000-3.507zm0 1.25a.503.503 0 110 1.006.503.503 0 010-1.006z" fill="#000" fill-rule="nonzero"/></svg>
